X: 0762
T: STRATHDOWN, A STRATHSPEY
B: Oliver Ditson "The Boston Collection of Instrumental Music" 1910 p.76 #2
F: http://conquest.imslp.info/files/imglnks/usimg/8/8f/IMSLP175643-PMLP309456-bostoncollection00bost_bw.pdf
%: 2012 John Chambers <jc:trillian.mit.edu>
M: 4/4
L: 1/8
K: D
D | D/E/F/G/ AF D/D/D B2 | A<dA>F G<EE<F | D/E/F/G/ AF D/D/D B2 | A<dAG FDD :|
g | f>ed<e d/d/d f2 | d<ef>d e>EE<g | f>ed<e d/d/d f2 | B<dAG FDD ||
g | f>ed<e d/d/d f2 | d>ef>d e>EE<g | f>be>f d>ec>d | B<dA>G FDD |]

%%sep 1 1 500
%%sep 1 1 500
